packages/ffe-icons/icons/filled/md/expand_content.svg

<svg xmlns="http://www.w3.org/2000/svg" height="24" viewBox="0 -960 960 960" width="24"><path d="M280-280h130.001q12.749 0 21.374 8.629Q440-262.743 440-249.987q0 12.755-8.625 21.37-8.625 8.616-21.374 8.616H256.155q-15.365 0-25.759-10.395-10.395-10.394-10.395-25.759v-153.846q0-12.749 8.629-21.374Q237.259-440 250.014-440q12.756 0 21.371 8.625Q280-422.75 280-410.001V-280Zm400-400H549.999q-12.749 0-21.374-8.629Q520-697.257 520-710.013q0-12.755 8.625-21.37 8.625-8.616 21.374-8.616h153.846q15.365 0 25.759 10.395 10.395 10.394 10.395 25.759v153.846q0 12.749-8.629 21.374Q722.741-520 709.986-520q-12.756 0-21.371-8.625Q680-537.25 680-549.999V-680Z"/></svg>

<svg xmlns="http://www.w3.org/2000/svg" height="24" viewBox="0 -960 960 960" width="24"><path d="M280-280h130q12.75 0 21.38 8.63 8.62 8.63 8.62 21.38 0 12.76-8.62 21.37Q422.75-220 410-220H256.16q-15.37 0-25.76-10.4-10.4-10.39-10.4-25.76V-410q0-12.75 8.63-21.38 8.63-8.62 21.38-8.62 12.76 0 21.37 8.62Q280-422.75 280-410v130Zm400-400H550q-12.75 0-21.38-8.63-8.62-8.63-8.62-21.38 0-12.76 8.62-21.37Q537.25-740 550-740h153.84q15.37 0 25.76 10.4 10.4 10.39 10.4 25.76V-550q0 12.75-8.63 21.38-8.63 8.62-21.38 8.62-12.76 0-21.37-8.62Q680-537.25 680-550v-130Z"/></svg>
